X: 3302
T: A BUMPER AT PARTING
%R: slip-jig
B: James Kerr "Merry Melodies" v.3 p.32 #302
Z: 2016 John Chambers <jc:trillian.mit.edu>
M: 9/8
L: 1/8
K: D
A |\
ddd efd cde | fff gef g2e |\
ddd efd cde | fff gec d2 ::\
a |\
aff ged cde | aff gef g2e |\
aff ged cde | fff gec d2 :|

%%center GUARACHA WALTZES.

%%sep 1 1 500
%%sep 1 1 500

